X:14515
T:Rory O'More
M:6/8
L:1/8
C:Trad.
S:New England Fiddler's Repertoire
R:Jig
K:A
|:eAA cAA|eAA f3|edc cBA|GBB Bcd|!
ecA cBA |ece fed|cde efg|a2AA3:|!
|:agf fcc|dcB A2G|FGA ABc|Bee efg|!
agf f2c|dcB A2G|FGA ABc|Bee e2f:|!
